// Clase 4
// El sintetizador de sonido

// Cargar sonido en Buffer
b = Buffer();

// Reproducir sonido con PlayBuf
PlayBuf.ar();

// Sintetizador de sonido
(
SynthDef().add
)

// Secuencia patrón
// variable global
// play, quant, stop

// Patrones
pseq
pn
prand
pshuffle
Librería de patrones