"Hola Mundo!".postln
// clase 1: introducción a SC
() // parametos
{} // funciones
|| // argumentos
; // salto de línea
~ // variable global
.
,
A-Z 0-9

// Primer sonido, apagar con ctrl+punto
{SinOsc.ar(440,0,0.5)}.play